src/core/app-switcher/app-avatar/icons/autoresponder.svg

<svg width="40" height="40" viewBox="0 0 40 40" fill="none" xmlns="http://www.w3.org/2000/svg">
<path d="M0 8C0 3.58172 3.58172 0 8 0H32C36.4183 0 40 3.58172 40 8V32C40 36.4183 36.4183 40 32 40H8C3.58172 40 0 36.4183 0 32V8Z" fill="#ECF3FF"/>
<path d="M17.0094 20.6776V18.3905L9.1665 25.2124L17.0094 31.9583V29.7696C23.6642 29.6883 29.7498 26.3678 29.7498 23.0145V16.3454C26.5921 20.6396 18.3383 20.6966 17.0094 20.6776Z" fill="#4E56EA"/>
<path d="M29.4371 13.6183C28.8558 8.30581 20.3087 7.25079 17.0093 7.04163V15.7093C21.4846 15.9008 24.1145 17.3034 25.0753 17.7401C25.847 17.3742 28.5524 15.9532 29.4371 13.6183Z" fill="#4E56EA"/>
</svg>

<svg xmlns="http://www.w3.org/2000/svg" width="40" height="40" fill="none" viewBox="0 0 40 40">
  <path fill="#ECF3FF" d="M0 8a8 8 0 0 1 8-8h24a8 8 0 0 1 8 8v24a8 8 0 0 1-8 8H8a8 8 0 0 1-8-8V8Z"/>
  <path fill="#4E56EA" d="M17.01 20.678V18.39l-7.844 6.822 7.843 6.746V29.77c6.655-.082 12.74-3.402 12.74-6.755v-6.67c-3.157 4.295-11.41 4.352-12.74 4.333Z"/>
  <path fill="#4E56EA" d="M29.437 13.618c-.581-5.312-9.128-6.367-12.428-6.576v8.667c4.476.192 7.105 1.594 8.066 2.031.772-.366 3.477-1.787 4.362-4.122Z"/>
</svg>
